icons/star_medium.svg

<svg width="48" height="48" viewBox="0 0 48 48" fill="none" xmlns="http://www.w3.org/2000/svg">
<path fill-rule="evenodd" clip-rule="evenodd" d="M16.3404 28.3239L18.3122 28.6586L17.2938 34.657L22.5988 31.8395C23.4753 31.374 24.5247 31.374 25.4012 31.8395L30.7062 34.657L29.6878 28.6587C29.5237 27.6921 29.8396 26.7012 30.5425 26.009L34.8751 21.7427L28.9065 20.8665C27.923 20.7222 27.0826 20.0998 26.6507 19.2157L28.4477 18.3378C28.5926 18.6345 28.8728 18.8402 29.1969 18.8877L37.1469 20.0547C37.9631 20.1745 38.289 21.1878 37.6984 21.7694L31.9457 27.4341C31.7112 27.665 31.6042 27.9978 31.6596 28.3239L33.0176 36.3226C33.157 37.1438 32.3038 37.77 31.5737 37.3823L24.4631 33.6058C24.1732 33.4519 23.8268 33.4519 23.5369 33.6058L16.4263 37.3823C15.6962 37.77 14.843 37.1438 14.9824 36.3226L16.3404 28.3239ZM10.3016 21.7694C9.71099 21.1878 10.0369 20.1745 10.8531 20.0547L18.8031 18.8877C19.1272 18.8402 19.4074 18.6345 19.5523 18.3378L21.3493 19.2157C20.9174 20.0998 20.077 20.7222 19.0936 20.8665L13.1249 21.7427L17.4575 26.009C18.1604 26.7012 18.4763 27.6921 18.3122 28.6586L16.3404 28.3239C16.3958 27.9978 16.2888 27.665 16.0543 27.4341L10.3016 21.7694ZM24 13.7901L26.6507 19.2157L28.4477 18.3378L24.8923 11.0604C24.5273 10.3132 23.4727 10.3132 23.1077 11.0604L19.5523 18.3378L21.3493 19.2157L24 13.7901Z" fill="black"/>
</svg>

<svg
  xmlns="http://www.w3.org/2000/svg"
  width="24"
  height="24"
  viewBox="0 0 24 24"
  fill="none"
  stroke="currentColor"
  stroke-width="2"
  stroke-linecap="round"
  stroke-linejoin="round"
>
  <path
    fill-rule="evenodd"
    d="m16.34 28.324 1.972.335-1.018 5.998 5.305-2.817a2.99 2.99 0 0 1 2.802 0l5.305 2.817-1.018-5.998a3.01 3.01 0 0 1 .855-2.65l4.332-4.266-5.968-.876a3 3 0 0 1-2.256-1.651l1.797-.878a1 1 0 0 0 .749.55l7.95 1.167c.816.12 1.142 1.133.551 1.714l-5.752 5.665c-.235.231-.342.564-.286.89l1.358 7.999c.139.82-.714 1.447-1.444 1.06l-7.11-3.777a.99.99 0 0 0-.927 0l-7.11 3.776c-.73.388-1.584-.238-1.445-1.06zm-6.038-6.555c-.591-.581-.265-1.594.551-1.714l7.95-1.167a1 1 0 0 0 .75-.55l1.796.878a3 3 0 0 1-2.255 1.65l-5.97.877 4.333 4.266a3.01 3.01 0 0 1 .855 2.65l-1.972-.335a1.01 1.01 0 0 0-.286-.89zM24 13.79l2.65 5.426 1.798-.878-3.556-7.278a.99.99 0 0 0-1.784 0l-3.556 7.278 1.797.878z"
    clip-rule="evenodd"
  />
</svg>
